X: 1
T: Polska efter Jämt Olof Ersson
R: Polska
S: efter Jämt Olof Ersson
O: Orsa, Dalarna
D: Björn Ståbi
Z: Håkan Lidén, 2009-02-02
M: 3/4
L: 1/8
K: C
E>G c2 d2 | c/B/c/d/ e3 d | c<e a3 g | ^f>e d>c (3BAB | (3:2:4dc A2 B2 G>F |
E>G c2 d2 | c/B/c/d/ e3 d | c>e a2 g2 |1 Bd c4 :|2 Bd c3 e ||
|: g>e g<c' e>f | (3:2:5a2 ga ge c>e | (3:2:4ge f2 a2 g>B | (3:2:4Bd c2 A2 G2 |
g>e g<c' e>f | (3:2:5a2 ga ge c>e | (3:2:4ge f2 a2 g>B |1 B/A/B/d/ c3 e :|2 B/A/B/d/ c4 |]

